X: 121
T: No_48_Song_Concerning_a_Brave_Woman.krn
%%abc-version 2.0
%%abcx-abcm2ps-target-version 5.9.1 (29 Sep 2008)
%%abc-creator hum2abc beta
%%abcx-conversion-date 2020/08/10 18:54:57
%%gracespace 0 6 6
%%humdrum-veritas 1304221368
%%humdrum-veritas-data 2180925135
%%linebreak <none>
%%barnumbers 0
L: 1/4
M: 2/4
%%staves {1 2}
V: 1 clef=bass
V: 2 clef=bass
K: G
[V:1] [K:clef=bass][M:2/4]EE | 
[V:2] [K:clef=bass][M:2/4]!accent!G,,!accent!G,, | 
[V:1] EF | 
[V:2] !accent!G,,!accent!G,, | 
[V:1] GE | 
[V:2] !accent!G,,!accent!G,, | 
[V:1] GB, ||  
[V:2] z2 ||  
[V:1] [M:3/4]A,2G, | 
[V:2] [M:3/4]z3 | 
[V:1] A,A,B, ||  
[V:2] z3 ||  
[V:1] [M:2/4]CA, | 
[V:2] [M:2/4]z2 | 
[V:1] A,G, ||  
[V:2] z2 ||  
[V:1] [M:3/4]E,2B,, | 
[V:2] [M:3/4]z3 | 
[V:1] A,A,B, ||  
[V:2] z3 ||  
[V:1] [M:2/4]CA, | 
[V:2] [M:2/4]z2 | 
[V:1] A,G,/E,/ | 
[V:2] z2 | 
[V:1] G,2- | 
[V:2] z2 | 
[V:1] G,A, | 
[V:2] z2 | 
[V:1] G,2 | 
[V:2] z2 | 
[V:1] E,2 | 
[V:2] z2 | 
[V:1] B,,2- | 
[V:2] z2 | 
[V:1] B,,B,, | 
[V:2] z2 | 
[V:1] B,,2 |]  
[V:2] z2 |]  


